!!!!SEGMENT: pl-kk--kk-i-2--039_anonim--alleluia-veni-regina-nostra.krn
!!!cenid: 16xx:1659
!!!COM: Anonim
!!!COM-rismID:
!!!CDT:
!!!CNT:
!!!OTL: Alleluia. Veni regina nostra
!!!PDT:
!!!AGN: Sacred
!!!SMS-siglum: PL-Kk
!!!SMS-shelfmark: Kk.I.2
!!!SMS-shelfwork: 039 W
!!!NIFC-rismSourceID: 300258057
!!!NIFC-islandoraID: pl-kk:750
!!!URL-pdf-islandora: https://repozytorium.nifc.pl/islandora/object/pl-kk%3A750/datastream/PDF/view
!!!URL-scan: https://polish.musicsources.pl/pl/lokalizacje/galeria/rekopisy/5828 @EN{Scan on Polish Music Herritage in Open Access Website} @PL{Skany w portalu Dziedzictwo Muzyki Polskiej w otwartym dostępie}
!!!ONB-nifc: skany: C: 0060; A: 0163; T: 0265; B: 0363;
!!!AIN: 1 alto 1 bass 1 soprn 1 tenor
!!!key:
**kern	**text	**kern	**text	**kern	**text	**kern	**text
*part4	*part4	*part3	*part3	*part2	*part2	*part1	*part1
*staff4	*staff4	*staff3	*staff3	*staff2	*staff2	*staff1	*staff1
*>[A,B,A]	*>[A,B,A]	*>[A,B,A]	*>[A,B,A]	*>[A,B,A]	*>[A,B,A]	*>[A,B,A]	*>[A,B,A]
*>A	*>A	*>A	*>A	*>A	*>A	*>A	*>A
*I"BASVS	*	*I"TENOR	*	*I"ALTVS	*	*I"DISCANTVS	*
*I'B	*	*I'T	*	*I'A	*	*I'S	*
*Ibass	*	*Itenor	*	*Ialto	*	*Isoprn	*
*ICvox	*	*ICvox	*	*ICvox	*	*ICvox	*
*clefF4	*	*clefC4	*	*clefC3	*	*clefC1	*
*k[b-]	*	*k[b-]	*	*k[b-]	*	*k[b-]	*
*F:	*	*F:	*	*F:	*	*F:	*
*M2/1	*	*M2/1	*	*M2/1	*	*M2/1	*
*met(C|)	*	*met(C|)	*	*met(C|)	*	*met(C|)	*
*all\right	*	*all\right	*	*all\right	*	*all\right	*
=1-	=1-	=1-	=1-	=1-	=1-	=1-	=1-
!	!	!LO:TX:t=P:problem=kreska pseudotaktowa	!	!	!	!	!
0r	.	0r	.	2r	.	1c	Al-
!	!	!	!	!LO:TX:t=P:problem=kreska pseudotaktowa	!	!	!
.	.	.	.	2c/	Al-	.	.
*	*	*	*	*2\right	*	*	*
!	!	!	!	!	!	!LO:TX:t=P:problem=kreska pseudotaktowa	!
.	.	.	.	2d\	-le-	1f	-le-
.	.	.	.	2.f\	.	.	.
=2-	=2-	=2-	=2-	=2-	=2-	=2-	=2-
*	*	*	*	*	*	*lig	*
2r	.	1C	Al-	.	.	1g	.
.	.	.	.	4d\	.	.	.
!LO:TX:t=P:problem=kreska pseudotaktowa	!	!	!	!LO:TX:t=P:problem=kreska pseudotaktowa	!	!	!
2C/	Al-	.	.	2e\	.	.	.
!	!	!LO:TX:t=P:problem=kreska pseudotaktowa	!	!LO:TX:t=P:problem=kreska pseudotaktowa	!	!	!
2D/	-le-	1F	-le-	1f	.	1f	.
*2\right	*	*	*	*	*	*	*
2.F\	.	.	.	.	.	.	.
*	*	*	*	*	*	*Xlig	*
=3-	=3-	=3-	=3-	=3-	=3-	=3-	=3-
*	*	*lig	*	*	*	*	*
.	.	1G	.	1r	.	1b-	.
4D/	.	.	.	.	.	.	.
!LO:TX:t=P:problem=kreska pseudotaktowa	!	!	!	!	!	!	!
2E\	.	.	.	.	.	.	.
1F	.	1F	.	2.f\	.	1a	.
.	.	.	.	4e\	.	.	.
*	*	*Xlig	*	*	*	*	*
=4-	=4-	=4-	=4-	=4-	=4-	=4-	=4-
!	!	!	!	!	!	!LO:TX:t=P:problem=kreska pseudotaktowa	!
2.G\	.	1B-	.	4d\	.	1g	.
.	.	.	.	4c/	.	.	.
.	.	.	.	1d	.	.	.
!LO:TX:t=P:problem=kreska pseudotaktowa	!	!	!	!	!	!	!
4F\	.	.	.	.	.	.	.
2D/	.	1A	.	.	.	2a/	.
2E\	.	.	.	4c/	.	1f/	.
!	!	!	!	!LO:TX:t=P:problem=kreska pseudotaktowa	!	!	!
.	.	.	.	4B-/	.	.	.
=5-	=5-	=5-	=5-	=5-	=5-	=5-	=5-
!	!	!LO:TX:t=P:problem=kreska pseudotaktowa	!	!	!	!	!
2.C/	.	1G	.	2c/	.	.	.
!	!	!	!	!	!	!LO:TX:t=P:problem=kreska pseudotaktowa	!
.	.	.	.	2c/	.	2e/	.
!LO:TX:t=P:problem=kreska pseudotaktowa	!	!	!	!	!	!	!
4BB-/	.	.	.	.	.	.	.
2AA/	-lu-	2A/	.	2c/	.	1f	.
2BB-/	-ia	1F/	.	1d\	.	.	.
=6-	=6-	=6-	=6-	=6-	=6-	=6-	=6-
1GG	.	.	.	.	.	1g	-lu-
.	.	2E/	-lu-	4c/	.	.	.
!	!	!	!	!LO:TX:t=P:problem=kreska pseudotaktowa	!	!	!
.	.	.	.	4B-/	.	.	.
!LO:TX:t=P:problem=kreska pseudotaktowa	!	!LO:TX:t=P:problem=kreska pseudotaktowa	!	!	!	!LO:TX:t=P:problem=kreska pseudotaktowa	!
[1FFl	.	[1Fl	-ia.	2.A/	.	[1al	-ia
.	.	.	.	4B-/	.	.	.
=7-	=7-	=7-	=7-	=7-	=7-	=7-	=7-
0FF_	.	0F_	.	2c/	.	0a_	.
!	!	!	!	!LO:TX:t=P:problem=kreska pseudotaktowa	!	!	!
.	.	.	.	2c/	.	.	.
*	*	*	*	*custos:f	*	*	*
!	!	!	!	!LO:LB:g=original	!	!	!
.	.	.	.	2.f\	.	.	.
!	!	!	!	!LO:TX:t=P:problem=kreska pseudotaktowa	!	!	!
.	.	.	.	4e\	.	.	.
=8-	=8-	=8-	=8-	=8-	=8-	=8-	=8-
0FF]	.	0F]	.	2d\	.	0a]	.
.	.	.	.	2c/	-lu-	.	.
!	!	!	!	!LO:TX:t=P:problem=kreska pseudotaktowa	!	!	!
.	.	.	.	1fl	-ia	.	.
=9||	=9||	=9||	=9||	=9||	=9||	=9||	=9||
*>B	*>B	*>B	*>B	*>B	*>B	*>B	*>B
*M2/1	*	*M2/1	*	*M2/1	*	*M2/1	*
*met(C|)	*	*met(C|)	*	*met(C|)	*	*met(C|)	*
1F	Ve-	00r	.	00r	.	0r	.
2G\	-ni	.	.	.	.	.	.
1B-\	.	.	.	.	.	.	.
=10-	=10-	=10-	=10-	=10-	=10-	=10-	=10-
.	.	.	.	.	.	1f	Ve-
!LO:TX:t=P:problem=kreska pseudotaktowa	!	!	!	!	!	!	!
2A\	.	.	.	.	.	.	.
1G	.	.	.	.	.	2g/	.
.	.	.	.	.	.	1b-\	.
=11-	=11-	=11-	=11-	=11-	=11-	=11-	=11-
!LO:TX:t=P:problem=kreska pseudotaktowa	!	!	!	!LO:TX:t=P:problem=kreska pseudotaktowa	!	!	!
1F	.	1F	Ve-	0r	.	.	.
!	!	!	!	!	!	!LO:TX:t=P:problem=kreska pseudotaktowa	!
.	.	.	.	.	.	2a/	.
!LO:TX:a:t=4	!	!	!	!	!	!	!
!LO:TX:t=P:problem=kreska pseudotaktowa	!	!	!	!	!	!	!
00r	.	2G/	.	.	.	1g	-ni
.	.	1B-\	.	.	.	.	.
=12-	=12-	=12-	=12-	=12-	=12-	=12-	=12-
!	!	!	!	!	!	!LO:TX:t=P:problem=kreska pseudotaktowa	!
.	.	.	.	2r	.	1f	.
!	!	!LO:TX:t=P:problem=kreska pseudotaktowa	!	!	!	!	!
.	.	2A/	.	2c/	Ve-	.	.
.	.	1G	.	2.d\	-ni	1r	.
!	!	!	!	!LO:TX:t=P:problem=kreska pseudotaktowa	!	!	!
.	.	.	.	4e\	.	.	.
=13-	=13-	=13-	=13-	=13-	=13-	=13-	=13-
*	*	*	*	*	*	*lig	*
.	.	1F	-ni	2f\	.	1f	Re-
.	.	.	.	1f	.	.	.
*	*	*	*	*	*	*2\right	*
*custos:F	*	*	*	*	*	*col	*
!LO:LB:g=original	!	!LO:TX:t=P:problem=kreska pseudotaktowa	!	!	!	!	!
1F	re-	1r	.	.	.	2.a\	.
.	.	.	.	4e\	.	.	.
*	*	*	*	*	*	*Xlig	*
!	!	!	!	!LO:TX:t=P:problem=kreska pseudotaktowa	!	!LO:TX:t=P:problem=kreska pseudotaktowa	!
.	.	.	.	4d\	.	4b-/	.
*	*	*	*	*	*	*Xcol	*
*	*	*custos:F	*	*	*	*custos:cc	*
!	!	!LO:LB:g=original	!	!	!	!LO:LB:g=original	!
=14-	=14-	=14-	=14-	=14-	=14-	=14-	=14-
*	*	*lig	*	*	*	*	*
2.A\	-gi-	1F	re-	1c	.	1cc	-gi-
4B-\	.	.	.	.	.	.	.
!LO:TX:t=P:problem=kreska pseudotaktowa	!	!	!	!	!	!	!
*	*	*col	*	*lig	*	*	*
1c	-na	2.A\	.	1c	Re-	2cc\	-na
.	.	.	.	.	.	4b-\	.
*	*	*Xlig	*	*	*	*	*
!	!	!LO:TX:t=P:problem=kreska pseudotaktowa	!	!	!	!	!
.	.	4B-/	.	.	.	4a\	.
*	*	*Xcol	*	*	*	*	*
=15-	=15-	=15-	=15-	=15-	=15-	=15-	=15-
!	!	!	!	!	!	!LO:TX:t=P:problem=kreska pseudotaktowa	!
2r	.	1c	-gi-	1e	.	1g	.
2.C/	noſ-	.	.	.	.	.	.
*	*	*2\right	*	*Xlig	*	*	*
.	.	2c\	.	1g	-gi-	2r	.
4BB-/	.	.	.	.	.	.	.
!LO:TX:t=P:problem=kreska pseudotaktowa	!	!	!	!	!	!	!
2C/	.	4B-/	.	.	.	1cc\	no-
.	.	4A/	.	.	.	.	.
=16-	=16-	=16-	=16-	=16-	=16-	=16-	=16-
!	!	!LO:TX:t=P:problem=kreska pseudotaktowa	!	!	!	!	!
1G	.	1G	-na	2.g\	-na	.	.
.	.	.	.	.	.	2b-\	-ſtra
.	.	.	.	4f\	.	.	.
!	!	!	!	!LO:TX:t=P:problem=kreska pseudotaktowa	!	!LO:TX:t=P:problem=kreska pseudotaktowa	!
1A	.	2r	.	1e	.	1cc	.
.	.	1c\	no-	.	.	.	.
=17-	=17-	=17-	=17-	=17-	=17-	=17-	=17-
!LO:TX:t=P:problem=kreska pseudotaktowa	!	!	!	!	!	!	!
1G	.	.	.	2r	.	1dd	.
.	.	2B-\	.	2g\	No-	.	.
!	!	!LO:TX:t=P:problem=kreska pseudotaktowa	!	!	!	!	!
1A	.	1c	.	2e\	-ſtra	2cc\	.
!	!	!	!	!LO:TX:t=P:problem=kreska pseudotaktowa	!	!	!
.	.	.	.	2f\	.	2a\	.
=18-	=18-	=18-	=18-	=18-	=18-	=18-	=18-
!	!	!	!	!	!	!LO:TX:t=P:problem=kreska pseudotaktowa	!
1G	.	1d	.	2.g\	.	1b-	.
.	.	.	.	4f\	.	.	.
!	!	!	!	!	!	!LO:TX:t=P:problem=kreska pseudotaktowa	!
2A\	.	2c\	.	2e\	.	1a	.
!LO:TX:t=P:problem=kreska pseudotaktowa	!	!LO:TX:t=P:problem=kreska pseudotaktowa	!	!LO:TX:t=P:problem=kreska pseudotaktowa	!	!	!
2F\	.	2A/	.	2f\	.	.	.
*	*	*	*	*custos:d	*	*	*
!	!	!	!	!LO:LB:g=original	!	!	!
=19-	=19-	=19-	=19-	=19-	=19-	=19-	=19-
1G	.	1B-	.	2d\	.	1r	.
.	.	.	.	2.d\	.	.	.
*	*	*	*	*	*	*lig	*
2D/	-tra	1A	-ſtra	.	.	1f	Ve-
.	.	.	.	4c/	.	.	.
!	!	!	!	!LO:TX:t=P:problem=kreska pseudotaktowa	!	!	!
1F\	ve-	.	.	2A/	.	.	.
=20-	=20-	=20-	=20-	=20-	=20-	=20-	=20-
!	!	!LO:TX:t=P:problem=kreska pseudotaktowa	!	!	!	!	!
.	.	1r	.	1B-	.	1g	.
!LO:TX:t=P:problem=kreska pseudotaktowa	!	!	!	!	!	!	!
2E\	.	.	.	.	.	.	.
*	*	*lig	*	*	*	*Xlig	*
!	!	!	!	!LO:TX:t=P:problem=kreska pseudotaktowa	!	!	!
2F\	.	1F	ve-	1A	.	2a\	-ni
2A\	.	.	.	.	.	1cc\	do-
=21-	=21-	=21-	=21-	=21-	=21-	=21-	=21-
!LO:TX:t=P:problem=kreska pseudotaktowa	!	!	!	!	!	!	!
1G	-ni	1G	.	1r	.	.	.
.	.	.	.	.	.	2b-\	-mi-
!	!	!	!	!	!	!LO:TX:t=P:problem=kreska pseudotaktowa	!
*	*	*Xlig	*	*	*	*	*
2.F\	.	2A/	-ni	2r	.	1a	-na
!	!	!	!	!LO:TX:t=P:problem=kreska pseudotaktowa	!	!	!
.	.	1c\	do-	2f\	ve-	.	.
4E\	do-	.	.	.	.	.	.
=22-	=22-	=22-	=22-	=22-	=22-	=22-	=22-
2C/	-mi-	.	.	2e\	-ni	1g	.
!	!	!LO:TX:t=P:problem=kreska pseudotaktowa	!	!	!	!	!
1G	.	2B-/	.	2d\	do-	.	.
!	!	!	!	!	!	!LO:TX:t=P:problem=kreska pseudotaktowa	!
.	.	1A	-mi-	2e\	-mi-	1a	.
!LO:TX:t=P:problem=kreska pseudotaktowa	!	!	!	!LO:TX:t=P:problem=kreska pseudotaktowa	!	!	!
2F\	-na	.	.	2f\	-na	.	.
=23-	=23-	=23-	=23-	=23-	=23-	=23-	=23-
!	!	!LO:TX:t=P:problem=kreska pseudotaktowa	!	!	!	!	!
1G	in	1G	-na	1d	.	2b-\	in
.	.	.	.	.	.	1g	hor-
!	!	!LO:TX:t=P:problem=kreska pseudotaktowa	!	!	!	!	!
2.D/	hor-	1A	.	2d\	.	.	.
!	!	!	!	!	!	!LO:TX:t=P:problem=kreska pseudotaktowa	!
.	.	.	.	1d\	.	2f/	-tu
!LO:TX:t=P:problem=kreska pseudotaktowa	!	!	!	!	!	!	!
4C/	-tu	.	.	.	.	.	.
*custos:BB	*	*	*	*	*	*	*
!LO:LB:g=original	!	!	!	!	!	!	!
=24-	=24-	=24-	=24-	=24-	=24-	=24-	=24-
2BB-/	o-	2B-/	in	.	.	1g	.
!LO:TX:t=P:problem=kreska pseudotaktowa	!	!	!	!	!	!	!
2C/	-do-	1G	hor-	4c/	.	.	.
.	.	.	.	4B-/	.	.	.
!	!	!	!	!LO:TX:t=P:problem=kreska pseudotaktowa	!	!LO:TX:t=P:problem=kreska pseudotaktowa	!
1AA	.	.	.	1c	.	1a	o-
!	!	!LO:TX:t=P:problem=kreska pseudotaktowa	!	!	!	!	!
.	.	2F/	-tum	.	.	.	.
=25-	=25-	=25-	=25-	=25-	=25-	=25-	=25-
2GG/	-ris	1G	.	2r	.	1b-	-do-
1G	,	.	.	2.d\	in	.	.
!	!	!LO:TX:t=P:problem=kreska pseudotaktowa	!	!	!	!LO:TX:t=P:problem=kreska pseudotaktowa	!
.	.	1A	o-	.	.	1a	-ris
.	.	.	.	4e\	.	.	.
!	!	!	!	!LO:TX:t=P:problem=kreska pseudotaktowa	!	!	!
2F\	Su-	.	.	2f\	hor-	.	.
*	*	*custos:B	*	*	*	*	*
!	!	!LO:LB:g=original	!	!	!	!	!
=26-	=26-	=26-	=26-	=26-	=26-	=26-	=26-
!LO:TX:t=P:problem=kreska pseudotaktowa	!	!	!	!	!	!LO:TX:t=P:problem=kreska pseudotaktowa	!
1G	.	1B-	-do-	2d\	-tu	1r	.
!	!	!	!	!LO:TX:t=P::problem=kreska pseudotaktowa&colon;między nutą a kropką	!	!	!
.	.	.	.	2.d\	o-	.	.
*	*	*	*	*	*	*lig	*
!	!	!LO:TX:t=P:problem=kreska pseudotaktowa	!	!	!	!	!
2D/	per	1A	-ris	.	.	1f	Su-
.	.	.	.	4c/	.	.	.
!	!	!	!	!LO:TX:t=P:problem=kreska pseudotaktowa	!	!	!
1F\	.	.	.	2A/	-do-	.	.
=27-	=27-	=27-	=27-	=27-	=27-	=27-	=27-
.	.	1r	.	1B-	-ris	1g	.
!LO:TX:t=P:problem=kreska pseudotaktowa	!	!	!	!	!	!	!
2E\	om-	.	.	.	.	.	.
*	*	*	*	*	*	*Xlig	*
*	*	*lig	*	*	*	*custos:a	*
!	!	!	!	!LO:TX:t=P:problem=kreska pseudotaktowa	!	!LO:LB:g=original	!
2F\	-ni-	1F	Su-	1A	.	2a/	-per
2A\	-a	.	.	.	.	1cc\	.
=28-	=28-	=28-	=28-	=28-	=28-	=28-	=28-
!LO:TX:t=P:problem=kreska pseudotaktowa	!	!	!	!	!	!	!
1G	.	1G	.	1r	.	.	.
.	.	.	.	.	.	2b-/	.
*	*	*Xlig	*	*	*	*	*
!	!	!	!	!	!	!LO:TX:t=P:problem=kreska pseudotaktowa	!
2.F\	.	2A/	-per	2r	.	1a	.
.	.	1c\	om-	2f\	Su-	.	.
4E\	.	.	.	.	.	.	.
=29-	=29-	=29-	=29-	=29-	=29-	=29-	=29-
!	!	!	!	!	!	!LO:TX:t=P:problem=kreska pseudotaktowa	!
2C/	.	.	.	2e\	-p(er)	1g	.
!	!	!LO:TX:t=P:problem=kreska pseudotaktowa	!	!LO:TX:t=P:problem=kreska pseudotaktowa	!	!	!
1G	.	2B-/	.	2d\	om-	.	.
*	*	*	*	*custos:e	*	*	*
!	!	!	!	!LO:LB:g=original	!	!	!
.	.	1A	-ni-	2e\	-ni-	1cc	om-
!LO:TX:t=P:problem=kreska pseudotaktowa	!	!	!	!	!	!	!
2F\	.	.	.	2f\	-a	.	.
=30-	=30-	=30-	=30-	=30-	=30-	=30-	=30-
!	!	!LO:TX:t=P:problem=kreska pseudotaktowa	!	!	!	!	!
1G	.	1G	-a	2d\	.	2b-/	-ni-
!	!	!	!	!LO:TX:t=P:problem=kreska pseudotaktowa	!	!LO:TX:t=P:problem=kreska pseudotaktowa	!
.	.	.	.	2e\	.	2g/	-a
1F	.	1c	a-	2.f\	a-	1a	.
.	.	.	.	4e\	-ro-	.	.
=31-	=31-	=31-	=31-	=31-	=31-	=31-	=31-
!	!	!	!	!	!	!LO:TX:t=P:problem=kreska pseudotaktowa	!
2G\	.	2B-/	-ro-	2d\	-ma-	1g	.
!LO:TX:t=P:problem=kreska pseudotaktowa	!	!LO:TX:t=P:problem=kreska pseudotaktowa	!	!LO:TX:t=P:problem=kreska pseudotaktowa	!	!	!
2E\	.	2G/	.	2c/	-ta	.	.
2D/	.	1A	-ma-	2d\	.	2f/	a-
2F\	.	.	.	2c/	.	1f/	-ro-
=32-	=32-	=32-	=32-	=32-	=32-	=32-	=32-
!LO:TX:t=P:problem=kreska pseudotaktowa	!	!LO:TX:t=P:problem=kreska pseudotaktowa	!	!	!	!	!
1C	A-	1G	.	2.c/	.	.	.
!	!	!	!	!	!	!LO:TX:t=P:problem=kreska pseudotaktowa	!
.	.	.	.	.	.	2e/	.
.	.	.	.	4B-/	.	.	.
!	!	!	!	!LO:TX:t=P:problem=kreska pseudotaktowa	!	!	!
1D	-ro-	2F/	.	1A	.	1f	-ma-
.	.	1F/	.	.	.	.	.
=33-	=33-	=33-	=33-	=33-	=33-	=33-	=33-
!	!	!	!	!	!	!LO:TX:t=P:problem=kreska pseudotaktowa	!
1C	.	.	.	2r	.	1g	.
*	*	*	*	*	*ij	*	*
.	.	2E/	-ta.	2c/	Su-	.	.
*	*	*lig	*	*	*	*	*
!LO:TX:t=P:problem=kreska pseudotaktowa	!	!	!	!	!	!	!
1D	.	1F	.	2A/	-p(er)	2f/	.
!	!	!	!	!LO:TX:t=P:problem=kreska pseudotaktowa	!	!	!
.	.	.	.	2B-/	om-	2.f/	.
=34-	=34-	=34-	=34-	=34-	=34-	=34-	=34-
2.C/	-ma-	1G	.	2c/	-ni-	.	.
.	.	.	.	.	.	4d/	-ta.
.	.	.	.	1c	-a	2e/	.
4BB-/	.	.	.	.	.	.	.
*	*	*Xlig	*	*	*	*	*
!	!	!LO:TX:a:i:t=Alleluja ut supra	!	!	!	!	!
2AA/	-ta	[1Fl	.	.	.	[1fl;	.
!	!	!	!	!LO:TX:t=P:problem=kreska pseudotaktowa	!	!	!
2.D/	.	.	.	2A/	a-	.	.
=35-	=35-	=35-	=35-	=35-	=35-	=35-	=35-
.	.	0F_	.	2A/	-ro-	0f_	.
4C/	.	.	.	.	.	.	.
1BB-	.	.	.	1d	-ma-	.	.
4AA/	.	.	.	4c/	.	.	.
!	!	!	!	!LO:TX:t=P:problem=kreska pseudotaktowa	!	!	!
4GG/	.	.	.	4B-/	.	.	.
=36-	=36-	=36-	=36-	=36-	=36-	=36-	=36-
!LO:TX:b:i:t=alleluia daCapo.	!	!	!	!LO:TX:a:i:t=Alleluja ut supra	!	!	!
0FFl	.	0F]	.	0cl	-ta	0f]	.
*	*	*	*	*	*Xij	*	*
==	==	==	==	==	==	==	==
*-	*-	*-	*-	*-	*-	*-	*-
!!!system-decoration: [(*)]
!!!RDF**kern: < = below
!!!RDF**kern: l = terminal long
!!!ENC: Berenika Jozajtis
!!!END: 2022-01-18
!!!ENC: Andrzej Kubiczek
!!!END: 2022-01-23
